X:15
T:Celdae's Jig
M:6/8
L:1/8
C:© Paul Gitlitz 2000
R:Jig
B:Giblitz Fancy
N:She looks good wrapped in a sarong.
K:Am
"Am"EAE B2A|"F"FAF c2B|"G"Bcd Bcd|Bcd "Em"fed|!
"Am"EAE B2A|"F"FAF c2B|"G"Bcd "Em"cge|dcB "Am"A3:|!
|:"Am"Aa Ag Af|"G7"egf "Em"edc|"Am"Aa Ag Af|"Em"efg "F"f3|!
"Am"Aa Ag Af|"Em"egf edc|"Am"ae "G7"gd fe|"G"dcB "Am"A3:|]
